X:177
T:Jackson's Bottle of Brandy
T:Pay the Reckoning
R:jig
S:Mary Bergin
H:See also #465 in A
D:Skylark
D:Planxty: After the Break
Z:id:hn-jig-177
M:6/8
K:G
G2e dBG|~B3 dBA|G2e dBG|~A3 BGE|G2e dBG|~B3 deg|age dBG|~A3 BGE:|
~g3 faf|e/f/ge def|gfg efg|aga bge|gbg f/g/af|ege deg|age dBG|~A3 BGE:|

